modules/hawcons-stroke/icons/icon-147-tags.svg

<?xml version="1.0" encoding="UTF-8" standalone="no"?>
<svg width="32px" height="32px" viewBox="0 0 32 32" version="1.1" xmlns="http://www.w3.org/2000/svg" xmlns:xlink="http://www.w3.org/1999/xlink" xmlns:sketch="http://www.bohemiancoding.com/sketch/ns">
    <!-- Generator: Sketch 3.0.3 (7891) - http://www.bohemiancoding.com/sketch -->
    <title>icon 147 tags</title>
    <desc>Created with Sketch.</desc>
    <defs></defs>
    <g id="Page-1" stroke="none" stroke-width="1" fill="none" fill-rule="evenodd" sketch:type="MSPage">
        <g id="icon-147-tags" sketch:type="MSArtboardGroup" fill="#929292">
            <path d="M6.2653953,5 L4.99961498,5 C3.89525812,5 3,5.88743329 3,6.99961498 L3,15 L16.3809027,28.3809027 C17.1646418,29.1646418 18.433119,29.1668566 19.2115341,28.3884415 L19.8626502,27.7373254 C20.6198849,28.1384197 21.5780112,28.0219644 22.2115341,27.3884415 L29.3884415,20.2115341 C30.168017,19.4319586 30.1640508,18.1640508 29.3809027,17.3809027 L16,4 L7.99961498,4 C7.25796139,4 6.61061281,4.40023868 6.2653953,5 L6.2653953,5 L6.2653953,5 Z M6,6 L5.00844055,6 C4.45149422,6 4,6.45699692 4,7.00844055 L4,14.5 L17.0998579,27.671163 C17.488383,28.0618028 18.1183535,28.0613199 18.5042948,27.672744 L19.0865321,27.0865321 L6,14 L6,6 L6,6 Z M15.5,5 L8.00844055,5 C7.45149422,5 7,5.45699692 7,6.00844055 L7,13.5 L20.0998579,26.671163 C20.488383,27.0618028 21.1183535,27.0613199 21.5042948,26.672744 L28.6678854,19.4602516 C29.0550094,19.0704849 29.0531075,18.4413912 28.6620109,18.0535183 L15.5,5 L15.5,5 Z M11.5,12 C12.8807119,12 14,10.8807119 14,9.5 C14,8.11928806 12.8807119,7 11.5,7 C10.1192881,7 9,8.11928806 9,9.5 C9,10.8807119 10.1192881,12 11.5,12 L11.5,12 Z M11.5,11 C12.3284272,11 13,10.3284272 13,9.5 C13,8.67157283 12.3284272,8 11.5,8 C10.6715728,8 10,8.67157283 10,9.5 C10,10.3284272 10.6715728,11 11.5,11 L11.5,11 Z" id="tags" sketch:type="MSShapeGroup"></path>
        </g>
    </g>
</svg>

<svg width="32" height="32" xmlns="http://www.w3.org/2000/svg"><path d="M6.265 5H5c-1.105 0-2 .887-2 2v8l13.38 13.38a2.003 2.003 0 0 0 2.832.008l.65-.65a2 2 0 0 0 2.35-.35l7.176-7.176c.78-.78.776-2.048-.007-2.831L16 4H8c-.742 0-1.39.4-1.735 1zM6 6h-.992C4.451 6 4 6.457 4 7.008V14.5l13.1 13.171a.99.99 0 0 0 1.404.002l.583-.586L6 14V6zm9.5-1H8.008C7.451 5 7 5.457 7 6.008V13.5l13.1 13.171a.99.99 0 0 0 1.404.002l7.164-7.213a.994.994 0 0 0-.006-1.406L15.5 5zm-4 7a2.5 2.5 0 1 0 0-5 2.5 2.5 0 0 0 0 5zm0-1a1.5 1.5 0 1 0 0-3 1.5 1.5 0 0 0 0 3z" fill="#929292" fill-rule="evenodd"/></svg>
